Origami/22x22/apps/pragha.svg

<svg width="22" height="22" version="1" xmlns="http://www.w3.org/2000/svg">
 <rect transform="matrix(0,-1,-1,0,0,0)" x="-21" y="-21" width="20" height="20" rx="1" ry="1" style="fill:#3c6eb4"/>
 <path d="m2 1c-0.554 0-1 0.446-1 1v0.5c0-0.554 0.446-1 1-1h18c0.554 0 1 0.446 1 1v-0.5c0-0.554-0.446-1-1-1z" style="fill:#ffffff;opacity:.1"/>
 <path d="m1 20v0.5c0 0.554 0.446 1 1 1h18c0.554 0 1-0.446 1-1v-0.5c0 0.554-0.446 1-1 1h-18c-0.554 0-1-0.446-1-1z" style="opacity:.2"/>
 <path d="m13.43964 5.50018c-0.07335-0.0044-0.190733 0.04163-0.405273 0.133789-0.254665 0.1094-0.834059 0.198242-1.287109 0.198242-1.603321 0.032245-2.8862805 0.574419-3.9257825 1.59375-1.41095 1.3929505-1.855514 3.144336-1.211914 4.771486 0.148565 0.375595 0.2387755 0.757283 0.2001955 0.848633-0.038565 0.09134-0.3098825 0.345031-0.6015625 0.563476-0.63375 0.47456-1.071991 1.24-1.181641 2.0625-0.065865 0.494055-0.01989 0.729633 0.259766 1.317383 0.6006 1.26215 1.9623125 1.802668 3.414063 1.355468 0.8406005-0.25893 1.6821185-1.178868 2.3554685-2.574218 0.58155-1.2052 0.606319-1.234122 1.230469-1.451172 1.05225-0.36594 1.714973-0.770692 2.374023-1.448242 1.1684-1.20125 1.602344-2.757091 1.183594-4.244142-0.188165-0.66815-0.346122-0.8984235-1.198242-1.7490235-0.53975-0.5388-1.018453-1.084564-1.064453-1.211914-0.038775-0.10729-0.068252-0.1616355-0.141602-0.1660155zm-2.507812 1c0.535113 0.0021 0.949586 0.1562625 1.0625 0.4628905 0.03702 0.1005515-0.119356 0.5745145-0.348633 1.0527345-0.589609 1.22985-0.778481 1.906624-1.134766 4.076173-0.441872 2.690687-0.92429 3.852154-1.8916015 4.550781-0.6098015 0.440397-1.3587895 0.478197-1.7587895 0.08984-0.346062-0.335986-0.446131-0.757031-0.285156-1.198243 0.1275125-0.349502 0.251265-0.405467 1.180664-0.536132 0.6466055-0.09089 1.244141-0.519411 1.244141-1.079097 0-0.35219-0.2907395-0.554393-0.7929695-1.061524-0.777015-0.784614-1.1165395-1.538531-1.120117-2.489258-0.00561-1.487018 0.7562185-2.7514165 2.0585945-3.4160165 0.595442-0.303846 1.251019-0.454245 1.786133-0.4521485zm1.545898 1.001953c0.170077-0.02286 0.386853 0.1553655 0.692383 0.529297 1.207162 1.477345 1.082873 3.71355-0.277344 4.998048-0.579824 0.547532-0.715161 0.58111-1.117187 0.286133-0.23254-0.170621-0.277306-0.325201-0.275391-0.949219 0.0027-0.955999 0.318338-3.296998 0.564453-4.1865245 0.119264-0.4310375 0.243009-0.654858 0.413086-0.6777345z" style="opacity:.2"/>
 <path d="m13.43964 5.0001805c-0.07335-0.0044-0.190733 0.04163-0.405273 0.133789-0.254665 0.1094-0.834059 0.198242-1.287109 0.198242-1.603321 0.032245-2.8862805 0.574419-3.9257825 1.59375-1.41095 1.3929505-1.855514 3.1443355-1.211914 4.7714855 0.148565 0.375595 0.2387755 0.757283 0.2001955 0.848633-0.038565 0.09135-0.3098825 0.345031-0.6015625 0.563476-0.63375 0.47456-1.071991 1.24-1.181641 2.0625-0.065865 0.494055-0.01989 0.729633 0.259766 1.317383 0.6006 1.26215 1.9623125 1.802668 3.414063 1.355468 0.8406005-0.25893 1.6821185-1.178868 2.3554685-2.574218 0.58155-1.2052 0.606319-1.234122 1.230469-1.451172 1.05225-0.36594 1.714973-0.770692 2.374023-1.448242 1.1684-1.20125 1.602344-2.757091 1.183594-4.2441415-0.188165-0.66815-0.346122-0.8984235-1.198242-1.7490235-0.53975-0.5388-1.018453-1.084564-1.064453-1.211914-0.038776-0.10729-0.068252-0.1616355-0.141602-0.1660155zm-2.507812 1c0.535113 0.0021 0.949586 0.1562625 1.0625 0.4628905 0.03702 0.1005515-0.119356 0.5745145-0.348633 1.0527345-0.589609 1.2298495-0.778481 1.9066225-1.134766 4.0761725-0.441872 2.690687-0.92429 3.852154-1.8916015 4.550781-0.6098015 0.440397-1.3587895 0.478197-1.7587895 0.08984-0.346062-0.335982-0.446131-0.757027-0.285156-1.198238 0.1275125-0.349503 0.251265-0.405468 1.180664-0.536133 0.6466055-0.09089 1.244141-0.519415 1.244141-1.079101 0-0.35219-0.2907395-0.554393-0.7929695-1.061524-0.777015-0.784614-1.1165395-1.538531-1.120117-2.489258-0.00561-1.4870175 0.7562185-2.751416 2.0585945-3.416016 0.595442-0.303846 1.251019-0.454245 1.786133-0.4521485zm1.545898 1.001953c0.170077-0.02286 0.386853 0.1553655 0.692383 0.529297 1.207162 1.4773435 1.082873 3.7135495-0.277344 4.9980475-0.579824 0.547532-0.715161 0.58111-1.117187 0.286133-0.23254-0.170621-0.277306-0.325201-0.275391-0.949219 0.0027-0.955999 0.318338-3.2969975 0.564453-4.186524 0.119264-0.4310375 0.243009-0.654858 0.413086-0.6777345z" style="fill:#ffffff"/>
</svg>

<svg xmlns="http://www.w3.org/2000/svg" width="22" height="22" version="1">
 <rect style="fill:#3c6eb4" width="20" height="20" x="-21" y="-21" rx="1" ry="1" transform="matrix(0,-1,-1,0,0,0)"/>
 <path style="opacity:0.1;fill:#ffffff" d="M 2,1 C 1.446,1 1,1.446 1,2 v 0.5 c 0,-0.554 0.446,-1 1,-1 h 18 c 0.554,0 1,0.446 1,1 V 2 C 21,1.446 20.554,1 20,1 Z"/>
 <path style="opacity:0.2" d="m 1,20 v 0.5 c 0,0.554 0.446,1 1,1 h 18 c 0.554,0 1,-0.446 1,-1 V 20 c 0,0.554 -0.446,1 -1,1 H 2 C 1.446,21 1,20.554 1,20 Z"/>
 <path style="opacity:0.2" d="m 13.43964,5.50018 c -0.07335,-0.0044 -0.190733,0.04163 -0.405273,0.133789 -0.254665,0.1094 -0.834059,0.198242 -1.287109,0.198242 -1.603321,0.032245 -2.8862805,0.574419 -3.9257825,1.59375 -1.41095,1.3929505 -1.855514,3.144336 -1.211914,4.771486 0.148565,0.375595 0.2387755,0.757283 0.2001955,0.848633 -0.038565,0.09134 -0.3098825,0.345031 -0.6015625,0.563476 -0.63375,0.47456 -1.071991,1.24 -1.181641,2.0625 -0.065865,0.494055 -0.01989,0.729633 0.259766,1.317383 0.6006,1.26215 1.9623125,1.802668 3.414063,1.355468 0.8406005,-0.25893 1.6821185,-1.178868 2.3554685,-2.574218 0.58155,-1.2052 0.606319,-1.234122 1.230469,-1.451172 1.05225,-0.36594 1.714973,-0.770692 2.374023,-1.448242 1.1684,-1.20125 1.602344,-2.757091 1.183594,-4.244142 -0.188165,-0.66815 -0.346122,-0.8984235 -1.198242,-1.7490235 -0.53975,-0.5388 -1.018453,-1.084564 -1.064453,-1.211914 C 13.542467,5.5589055 13.51299,5.50456 13.43964,5.50018 Z m -2.507812,1 c 0.535113,0.0021 0.949586,0.1562625 1.0625,0.4628905 0.03702,0.1005515 -0.119356,0.5745145 -0.348633,1.0527345 -0.589609,1.22985 -0.778481,1.906624 -1.134766,4.076173 -0.441872,2.690687 -0.92429,3.852154 -1.8916015,4.550781 C 8.009526,17.083156 7.260538,17.120956 6.860538,16.732599 6.514476,16.396613 6.414407,15.975568 6.575382,15.534356 c 0.1275125,-0.349502 0.251265,-0.405467 1.180664,-0.536132 0.6466055,-0.09089 1.244141,-0.519411 1.244141,-1.079097 0,-0.35219 -0.2907395,-0.554393 -0.7929695,-1.061524 C 7.4302025,12.072989 7.090678,11.319072 7.0871005,10.368345 7.0814905,8.881327 7.843319,7.6169285 9.145695,6.9523285 9.741137,6.6484825 10.396714,6.4980835 10.931828,6.50018 Z m 1.545898,1.001953 c 0.170077,-0.02286 0.386853,0.1553655 0.692383,0.529297 1.207162,1.477345 1.082873,3.71355 -0.277344,4.998048 -0.579824,0.547532 -0.715161,0.58111 -1.117187,0.286133 -0.23254,-0.170621 -0.277306,-0.325201 -0.275391,-0.949219 0.0027,-0.955999 0.318338,-3.296998 0.564453,-4.1865245 0.119264,-0.4310375 0.243009,-0.654858 0.413086,-0.6777345 z"/>
 <path style="fill:#ffffff" d="m 13.43964,5.0001805 c -0.07335,-0.0044 -0.190733,0.04163 -0.405273,0.133789 -0.254665,0.1094 -0.834059,0.198242 -1.287109,0.198242 -1.603321,0.032245 -2.8862805,0.574419 -3.9257825,1.59375 -1.41095,1.3929505 -1.855514,3.1443355 -1.211914,4.7714855 0.148565,0.375595 0.2387755,0.757283 0.2001955,0.848633 -0.038565,0.09135 -0.3098825,0.345031 -0.6015625,0.563476 -0.63375,0.47456 -1.071991,1.24 -1.181641,2.0625 -0.065865,0.494055 -0.01989,0.729633 0.259766,1.317383 0.6006,1.26215 1.9623125,1.802668 3.414063,1.355468 0.8406005,-0.25893 1.6821185,-1.178868 2.3554685,-2.574218 0.58155,-1.2052 0.606319,-1.234122 1.230469,-1.451172 1.05225,-0.36594 1.714973,-0.770692 2.374023,-1.448242 1.1684,-1.20125 1.602344,-2.757091 1.183594,-4.2441415 C 15.655772,7.4589835 15.497815,7.22871 14.645695,6.37811 14.105945,5.83931 13.627242,5.293546 13.581242,5.166196 13.542466,5.058906 13.51299,5.0045605 13.43964,5.0001805 Z m -2.507812,1 c 0.535113,0.0021 0.949586,0.1562625 1.0625,0.4628905 0.03702,0.1005515 -0.119356,0.5745145 -0.348633,1.0527345 C 11.056086,8.745655 10.867214,9.422428 10.510929,11.591978 10.069057,14.282665 9.586639,15.444132 8.6193275,16.142759 8.009526,16.583156 7.260538,16.620956 6.860538,16.232599 6.514476,15.896617 6.414407,15.475572 6.575382,15.034361 c 0.1275125,-0.349503 0.251265,-0.405468 1.180664,-0.536133 0.6466055,-0.09089 1.244141,-0.519415 1.244141,-1.079101 0,-0.35219 -0.2907395,-0.554393 -0.7929695,-1.061524 C 7.4302025,11.572989 7.090678,10.819072 7.0871005,9.868345 7.0814905,8.3813275 7.843319,7.116929 9.145695,6.452329 9.741137,6.148483 10.396714,5.998084 10.931828,6.0001805 Z m 1.545898,1.001953 c 0.170077,-0.02286 0.386853,0.1553655 0.692383,0.529297 1.207162,1.4773435 1.082873,3.7135495 -0.277344,4.9980475 -0.579824,0.547532 -0.715161,0.58111 -1.117187,0.286133 -0.23254,-0.170621 -0.277306,-0.325201 -0.275391,-0.949219 0.0027,-0.955999 0.318338,-3.2969975 0.564453,-4.186524 0.119264,-0.4310375 0.243009,-0.654858 0.413086,-0.6777345 z"/>
</svg>
